!!!OTL: 208. Plyeskun
!!!Genre:	Plyeskun
!!!Mode:	Freygish
!!!Listening/dance:	dance
!!!:	*B-:
!!!One_Mode:	no
**kern
*I"P1
*clefG2
*k[b-e-a-]
*G:frey
*M2/4
*>[A,B,B1,B,B2,C,D,D1,D,D2]
*>A
=1
!LO:TX:a:i:t=G-freygish
16ddLL
16dd
16dd
16ddJJ
8ee-L
16ddL
16ccJJ
=2
8bnL
8dd
8b
8ccJ
=3
16ddLL
16dd
16dd
16ddJJ
8ee-L
16ddL
16ccJJ
=4
8bnL
8ddJ
4b
*>B
=5!|:
8ffL
8ee-J
8ddL
8ccJ
=6
8bnL
8f
8g
8a-J
=7
(8.bnL
16a-Jk)
(8.bL
16a-Jk)
*>B1
=8
8gL
8ggJ
8ggL
8ggJ
*>B2
=:|!
8a-
4g
=9||
*k[b-e-]
!!!Begin-Modulation
*c:
*>C
!LO:TX:a:i:t=C-minor
8gg
=10
4.gg
8gg
=11
4.gg
8gg
=12
16ggLL
16ff
16ee-
16ddJJ
8ccL
8ggJ
=13
16ggLL
16ff
16ee-
16ddJJ
8ccL
8ggJ
=14
16ggLL
16ff
16ee-
16ddJJ
16ccLL
16dd
16ee-
16ccJJ
*>C
=15
4.dd
!!!End-Modulation
!!!Begin-Modulation
*B-:
!LO:TX:a:i:t=Bb-major
8dd
=16
16ffLL
16ff
16ff
16ffJJ
8ffL
8ffJ
=17
8b-L
8b-
8cc
8b-J
=18
16ffLL
16ff
16ff
16ffJJ
8ffL
8ffJ
=19
8b-L
8b-J
8ccL
8b-J
=20||!|:
*k[b-e-a-]
!!!End-Modulation
*G:frey
*>D
!LO:TX:a:i:t=G-freygish
8ffL
8ee-J
8ddL
8ccJ
=21
8bnL
8fJ
8gL
8a-J
=22
8.bnL
16a-Jk
8.bL
16a-Jk
!!!End-Modulation1
*>D1
=23
8gL
8ggJ
8ggL
8ggJ
*>D2
!!!End-Modulation2
=24:|!
(8a-
4.g)
==
*-
